gama.ui.shared/icons_svg/dark/experiment/errors.stop.svg

<svg height="25" viewBox="-850.774 -3200.298 25 25" width="25" xmlns="http://www.w3.org/2000/svg"><g fill="none"><circle cx="-838.274" cy="-3187.798" fill="#666" r="12"/><circle cx="-838.274" cy="-3187.798" r="12" stroke="#fff" stroke-linecap="round" stroke-linejoin="round" stroke-width=".25"/><path d="m-836.0795-3182.3537c-.3266.9177-1.1978 1.5557-2.2011 1.5557s-1.8744-.638-2.2011-1.5557h-1.2367c-1.0733 0-1.9444-.8711-1.9444-1.9443 0-.2724.0544-.5446.1711-.7935l.5522-1.2365v-2.248c0-2.03 1.2989-3.7566 3.1111-4.402v-.2646c0-.8554.7-1.5554 1.5556-1.5554.8555 0 1.5555.7 1.5555 1.5554v.2646c1.8123.6376 3.1112 2.372 3.1112 4.402v2.248l.5522 1.2365c.4355.98 0 2.1311-.9878 2.5667-.2489.1088-.5211.1711-.7933.1711h-1.2367zm-.8478 0h-2.6988c.2722.4667.7777.7777 1.3455.7777s1.0733-.311 1.3456-.7777zm-.5755-10.8267v-.0622c0-.4278-.35-.7778-.7778-.7778s-.7778.35-.7778.7778v.0622c.2567-.0388.5134-.0622.7778-.0622.2645 0 .5211.0234.7778.0622zm-.7778.7156c-2.1467 0-3.8889 1.7422-3.8889 3.8888v2.3334l-.0311.1556-.5833 1.3144c-.07.1478-.1011.3111-.1011.4746 0 .6454.5211 1.1665 1.1666 1.1665h6.8756c.1633 0 .3267-.0311.4744-.1011.5911-.2644.8556-.9489.5911-1.54l-.5833-1.3144-.0311-.1556v-2.3334c0-2.1466-1.7422-3.8888-3.8889-3.8888z" fill="#fc6d7e"/></g></svg>

<?xml version="1.0" encoding="UTF-8" standalone="no"?>
<!DOCTYPE svg PUBLIC "-//W3C//DTD SVG 1.1//EN" "http://www.w3.org/Graphics/SVG/1.1/DTD/svg11.dtd">
<svg xmlns:dc="http://purl.org/dc/elements/1.1/" version="1.1" xmlns="http://www.w3.org/2000/svg" xmlns:xl="http://www.w3.org/1999/xlink" viewBox="-850.7741 -3200.298 24.999996 25" width="24.999996" height="25">
  <defs/>
  <g id="SOURCES" stroke="none" stroke-dasharray="none" fill-opacity="1" stroke-opacity="1" fill="none">
    <title>SOURCES</title>
    <g id="SOURCES_Dark">
      <title>Dark</title>
      <g id="Graphic_11388">
        <circle cx="-838.2741" cy="-3187.798" r="12.000018268838" fill="#666"/>
        <circle cx="-838.2741" cy="-3187.798" r="12.000018268838" stroke="white" stroke-linecap="round" stroke-linejoin="round" stroke-width=".25"/>
      </g>
      <g id="Graphic_11387">
        <path d="M -836.0795 -3182.3537 C -836.4061 -3181.436 -837.2773 -3180.798 -838.2806 -3180.798 C -839.2839 -3180.798 -840.155 -3181.436 -840.4817 -3182.3537 L -841.7184 -3182.3537 C -842.7917 -3182.3537 -843.6628 -3183.2248 -843.6628 -3184.298 C -843.6628 -3184.5704 -843.6084 -3184.8426 -843.4917 -3185.0915 L -842.9395 -3186.328 L -842.9395 -3188.576 C -842.9395 -3190.606 -841.6406 -3192.3326 -839.8284 -3192.978 L -839.8284 -3193.2426 C -839.8284 -3194.098 -839.1284 -3194.798 -838.2728 -3194.798 C -837.4173 -3194.798 -836.7173 -3194.098 -836.7173 -3193.2426 L -836.7173 -3192.978 C -834.905 -3192.3404 -833.6061 -3190.606 -833.6061 -3188.576 L -833.6061 -3186.328 L -833.0539 -3185.0915 C -832.6184 -3184.1115 -833.0539 -3182.9604 -834.0417 -3182.5248 C -834.2906 -3182.416 -834.5628 -3182.3537 -834.835 -3182.3537 L -836.0717 -3182.3537 Z M -836.9273 -3182.3537 L -839.6261 -3182.3537 C -839.3539 -3181.887 -838.8484 -3181.576 -838.2806 -3181.576 C -837.7128 -3181.576 -837.2073 -3181.887 -836.935 -3182.3537 Z M -837.5028 -3193.1804 L -837.5028 -3193.2426 C -837.5028 -3193.6704 -837.8528 -3194.0204 -838.2806 -3194.0204 C -838.7084 -3194.0204 -839.0584 -3193.6704 -839.0584 -3193.2426 L -839.0584 -3193.1804 C -838.8017 -3193.2192 -838.545 -3193.2426 -838.2806 -3193.2426 C -838.0161 -3193.2426 -837.7595 -3193.2192 -837.5028 -3193.1804 Z M -838.2806 -3192.4648 C -840.4273 -3192.4648 -842.1695 -3190.7226 -842.1695 -3188.576 L -842.1695 -3186.2426 L -842.2006 -3186.087 L -842.7839 -3184.7726 C -842.8539 -3184.6248 -842.885 -3184.4615 -842.885 -3184.298 C -842.885 -3183.6526 -842.3639 -3183.1315 -841.7184 -3183.1315 L -834.8428 -3183.1315 C -834.6795 -3183.1315 -834.5161 -3183.1626 -834.3684 -3183.2326 C -833.7773 -3183.497 -833.5128 -3184.1815 -833.7773 -3184.7726 L -834.3606 -3186.087 L -834.3917 -3186.2426 L -834.3917 -3188.576 C -834.3917 -3190.7226 -836.1339 -3192.4648 -838.2806 -3192.4648 Z" fill="#fc6d7e"/>
      </g>
    </g>
  </g>
</svg>
